www/assets/icons/g_mobiledata.svg

<svg xmlns="http://www.w3.org/2000/svg" width="24" height="24" viewBox="0 0 24 24" fill='currentColor'><path d="M12.5 11v2h2v2h-5V9h7c0-1.1-.9-2-2-2h-5c-1.1 0-2 .9-2 2v6c0 1.1.9 2 2 2h5c1.1 0 2-.9 2-2v-4z"/></svg>

<svg width="24" height="24" viewBox="0 0 24 24" xmlns="http://www.w3.org/2000/svg" fill='currentColor'><path d="M12.5 11V13H14.5V15H9.5V9H16.5C16.5 7.9 15.6 7 14.5 7H9.5C8.4 7 7.5 7.9 7.5 9V15C7.5 16.1 8.4 17 9.5 17H14.5C15.6 17 16.5 16.1 16.5 15V11H12.5Z"/></svg>
